X:281
T:Seekers Jig
M:6/8
L:1/8
C:Frederick E. Wilson copyright 2005
R:Jig
K:ADor
E|A2EG2E|ABc B2E|A2E ABc|BAG E2G|A2E G2E|ABc B2G|ABc BAG|1(A3A2)E:|2A4EG
||
A2B c2A|GEG ABc|BGB d2B|cBc e2B|A2B c2A|GEG ABc|BGB d2B|1A4EG:|2A4zg||
a2a c'ba|ged eg^g|a2a c'ba|(g3g2)^g|a2a c'ba|ged cBA|G2E GAB|1(A3A2)g:|2
(A3A)AG||
A2EG2B|ABc edc|GAB d2B|cBA BAG|A2E G2B|ABc edc|edc BAG|1A4AG:|2A6||
% Output from ABC2Win  Version 2.1 i on 8/1/2006
